X: 21370
T: Kerry Mills
R: barndance
M: 4/4
K: Dmajor
A,2 A,2 F2 F2|E2 DE FA A2|BcdB A2 F2|EDEF E4|
A,2 A,2 F2 F2|E2 DE FA A2|BcdB A2 F2|EDEF D4:|
d2 de f2 A2|ABAF A2 Bc|d2 de f2 A2|ABAF E4|
d2 de f2 A2|ABAF A2 Bc|(3 ded (3 cdc (3 BcB (3 ABA|(3 GAG (3 FGF (3EFE D2:|
D3 F ABAF|(3 GAG F2 (3 EFE D2|D3 F A2 A2|(3 Bcd ec d4:|

